resources/icons/20px/backward-ten.svg

<svg width="20" height="20" viewBox="0 0 20 20" fill="none" xmlns="http://www.w3.org/2000/svg">
<path d="M9.75359 20C8.53781 20 7.39903 19.769 6.33726 19.307C5.27548 18.845 4.35149 18.2209 3.56529 17.4347C2.77909 16.6485 2.15499 15.7245 1.69299 14.6627C1.231 13.601 1 12.4622 1 11.2464C1 10.9708 1.09321 10.7398 1.27963 10.5534C1.46605 10.367 1.69704 10.2738 1.97262 10.2738C2.2482 10.2738 2.47919 10.367 2.66561 10.5534C2.85203 10.7398 2.94524 10.9708 2.94524 11.2464C2.94524 13.143 3.60581 14.7519 4.92696 16.073C6.2481 17.3942 7.85698 18.0548 9.75359 18.0548C11.6502 18.0548 13.2591 17.3942 14.5802 16.073C15.9014 14.7519 16.5619 13.143 16.5619 11.2464C16.5619 9.3498 15.9014 7.74093 14.5802 6.41978C13.2591 5.09864 11.6502 4.43807 9.75359 4.43807H9.60769L10.4344 5.2648C10.6289 5.45932 10.7222 5.68627 10.714 5.94563C10.7059 6.205 10.6127 6.43194 10.4344 6.62646C10.2399 6.82099 10.0089 6.9223 9.74143 6.93041C9.47396 6.93851 9.24296 6.8453 9.04844 6.65078L6.54394 4.14628C6.34941 3.95176 6.25215 3.72481 6.25215 3.46545C6.25215 3.20608 6.34941 2.97914 6.54394 2.78461L9.04844 0.280115C9.24296 0.0855906 9.47396 -0.00761886 9.74143 0.00048631C10.0089 0.00859148 10.2399 0.109906 10.4344 0.30443C10.6127 0.498954 10.7059 0.725899 10.714 0.985265C10.7222 1.24463 10.6289 1.47158 10.4344 1.6661L9.60769 2.49283H9.75359C10.9694 2.49283 12.1081 2.72382 13.1699 3.18582C14.2317 3.64781 15.1557 4.27191 15.9419 5.05811C16.7281 5.84432 17.3522 6.7683 17.8142 7.83008C18.2762 8.89186 18.5072 10.0306 18.5072 11.2464C18.5072 12.4622 18.2762 13.601 17.8142 14.6627C17.3522 15.7245 16.7281 16.6485 15.9419 17.4347C15.1557 18.2209 14.2317 18.845 13.1699 19.307C12.1081 19.769 10.9694 20 9.75359 20Z" fill="black"/>
<path fill-rule="evenodd" clip-rule="evenodd" d="M11.5 9.5V12.5H12.5V9.5H11.5ZM11 8C10.4477 8 10 8.44772 10 9V13C10 13.5523 10.4477 14 11 14H13C13.5523 14 14 13.5523 14 13V9C14 8.44772 13.5523 8 13 8H11Z" fill="black"/>
<path d="M9 9C9 8.44772 8.55228 8 8 8H6.75C6.33579 8 6 8.33579 6 8.75C6 9.16421 6.33579 9.5 6.75 9.5H7.5V13.25C7.5 13.6642 7.83579 14 8.25 14C8.66421 14 9 13.6642 9 13.25V9Z" fill="black"/>
</svg>

<svg xmlns="http://www.w3.org/2000/svg" viewBox="0 0 20 20">
  <path d="M9.754 20a8.5 8.5 0 0 1-3.417-.693 8.9 8.9 0 0 1-2.772-1.872 8.9 8.9 0 0 1-1.872-2.772A8.5 8.5 0 0 1 1 11.246q0-.413.28-.693a.94.94 0 0 1 .693-.28q.413 0 .693.28t.28.693q0 2.845 1.981 4.827t4.827 1.982 4.826-1.982 1.982-4.827T14.58 6.42 9.754 4.438h-.146l.826.827a.9.9 0 0 1 .28.68q-.012.39-.28.681a1 1 0 0 1-.693.304.9.9 0 0 1-.693-.28L6.544 4.147a.93.93 0 0 1-.292-.68q0-.39.292-.681L9.048.28A.9.9 0 0 1 9.741 0q.402.013.693.304.268.293.28.681a.9.9 0 0 1-.28.681l-.826.827h.146q1.823 0 3.416.693a8.9 8.9 0 0 1 2.772 1.872 8.9 8.9 0 0 1 1.872 2.772q.693 1.593.693 3.416a8.5 8.5 0 0 1-.693 3.417 8.9 8.9 0 0 1-1.872 2.772 8.9 8.9 0 0 1-2.772 1.872A8.5 8.5 0 0 1 9.754 20"/>
  <path d="M11.5 9.5v3h1v-3zM11 8a1 1 0 0 0-1 1v4a1 1 0 0 0 1 1h2a1 1 0 0 0 1-1V9a1 1 0 0 0-1-1zM9 9a1 1 0 0 0-1-1H6.75a.75.75 0 0 0 0 1.5h.75v3.75a.75.75 0 0 0 1.5 0z"/>
</svg>
